X:53
T:My honest dear neighbour I ne'er killed your cat
M:6/8
L:1/8
S:Stanford/Petrie (1905), No. 470
Z:AK/Fiddler's Companion
K:A
E | (EA)A {B}c2c | dcd Bcd | cBA GED | E3A2 :|
c | dBc d2e | dBc d2B | dee dBA | Bc^d e2E | 
EAA {B}c2c | dcd {c}B2d | cBA GED | E3A2 ||
